assets/icons/24px/stroke/tabcells-add-24px.svg

<svg width="24" height="24" viewBox="0 0 24 24" fill="none" xmlns="http://www.w3.org/2000/svg">
<path fill-rule="evenodd" clip-rule="evenodd" d="M6.93417 4C6.95604 4 6.97799 4 7 4L17.0658 4C17.9523 3.99995 18.7161 3.99991 19.3278 4.08215C19.9833 4.17028 20.6117 4.36902 21.1213 4.87868C21.631 5.38835 21.8297 6.0167 21.9179 6.67221C22.0001 7.28388 22.0001 8.0477 22 8.9342L22 11C22 11.5523 21.5523 12 21 12C20.4477 12 20 11.5523 20 11V9C20 8.02893 19.9979 7.40122 19.9357 6.93871C19.8774 6.50497 19.7832 6.36902 19.7071 6.2929C19.631 6.21677 19.495 6.12263 19.0613 6.06431C18.5988 6.00213 17.9711 6 17 6H7C6.02893 6 5.40122 6.00213 4.93871 6.06431C4.50497 6.12263 4.36902 6.21677 4.2929 6.2929C4.21677 6.36902 4.12263 6.50497 4.06431 6.93871C4.00213 7.40121 4 8.02893 4 9V15C4 15.9711 4.00213 16.5988 4.06431 17.0613C4.12263 17.495 4.21677 17.631 4.2929 17.7071C4.36902 17.7832 4.50497 17.8774 4.93871 17.9357C5.40122 17.9979 6.02893 18 7.00001 18H12.9C13.4523 18 13.9 18.4477 13.9 19C13.9 19.5523 13.4523 20 12.9 20L6.93418 20C6.04769 20.0001 5.28387 20.0001 4.67221 19.9179C4.0167 19.8297 3.38835 19.631 2.87868 19.1213C2.36902 18.6117 2.17028 17.9833 2.08215 17.3278C1.99991 16.7161 1.99995 15.9523 2 15.0658L2 9C2 8.97799 2 8.95604 2 8.93417C1.99995 8.04769 1.99991 7.28387 2.08215 6.67221C2.17028 6.0167 2.36902 5.38835 2.87868 4.87868C3.38835 4.36902 4.0167 4.17028 4.67221 4.08215C5.28387 3.99991 6.04769 3.99995 6.93417 4Z" fill="white"/>
<path fill-rule="evenodd" clip-rule="evenodd" d="M18 12C18.5523 12 19 12.4477 19 13V15H21C21.5523 15 22 15.4477 22 16C22 16.5523 21.5523 17 21 17H19V19C19 19.5523 18.5523 20 18 20C17.4477 20 17 19.5523 17 19V17H15C14.4477 17 14 16.5523 14 16C14 15.4477 14.4477 15 15 15H17V13C17 12.4477 17.4477 12 18 12Z" fill="white"/>
<path fill-rule="evenodd" clip-rule="evenodd" d="M11.7692 4.5C12.0454 4.5 12.2692 4.72386 12.2692 5V9.5H21C21.2761 9.5 21.5 9.72386 21.5 10C21.5 10.2761 21.2761 10.5 21 10.5H12.2692V13.5H13.6154C13.8915 13.5 14.1154 13.7239 14.1154 14C14.1154 14.2761 13.8915 14.5 13.6154 14.5H12.2692V19C12.2692 19.2761 12.0454 19.5 11.7692 19.5C11.4931 19.5 11.2692 19.2761 11.2692 19V14.5H3C2.72386 14.5 2.5 14.2761 2.5 14C2.5 13.7239 2.72386 13.5 3 13.5H11.2692V10.5H3C2.72386 10.5 2.5 10.2761 2.5 10C2.5 9.72386 2.72386 9.5 3 9.5H11.2692V5C11.2692 4.72386 11.4931 4.5 11.7692 4.5Z" fill="white"/>
</svg>

<svg width="24" height="24" fill="none" xmlns="http://www.w3.org/2000/svg"><path fill-rule="evenodd" clip-rule="evenodd" d="M6.934 4H17.066c.886 0 1.65 0 2.262.082.655.088 1.284.287 1.793.797.51.51.709 1.138.797 1.793C22 7.284 22 8.048 22 8.934V11a1 1 0 1 1-2 0V9c0-.971-.002-1.599-.064-2.061-.059-.434-.153-.57-.229-.646-.076-.076-.212-.17-.646-.229C18.6 6.002 17.971 6 17 6H7c-.971 0-1.599.002-2.061.064-.434.059-.57.153-.646.229-.076.076-.17.212-.229.646C4.002 7.4 4 8.029 4 9v6c0 .971.002 1.599.064 2.061.059.434.153.57.229.646.076.076.212.17.646.229C5.4 17.998 6.029 18 7 18h5.9a1 1 0 1 1 0 2H6.934c-.886 0-1.65 0-2.262-.082-.655-.088-1.284-.287-1.793-.797-.51-.51-.709-1.138-.797-1.793C2 16.716 2 15.952 2 15.066V9v-.066c0-.886 0-1.65.082-2.262.088-.655.287-1.284.797-1.793.51-.51 1.138-.709 1.793-.797C5.284 4 6.048 4 6.934 4z" fill="#fff"/><path fill-rule="evenodd" clip-rule="evenodd" d="M18 12a1 1 0 0 1 1 1v2h2a1 1 0 1 1 0 2h-2v2a1 1 0 1 1-2 0v-2h-2a1 1 0 1 1 0-2h2v-2a1 1 0 0 1 1-1z" fill="#fff"/><path fill-rule="evenodd" clip-rule="evenodd" d="M11.77 4.5a.5.5 0 0 1 .5.5v4.5H21a.5.5 0 0 1 0 1h-8.73v3h1.345a.5.5 0 0 1 0 1H12.27V19a.5.5 0 1 1-1 0v-4.5H3a.5.5 0 0 1 0-1h8.27v-3H3a.5.5 0 0 1 0-1h8.27V5a.5.5 0 0 1 .5-.5z" fill="#fff"/></svg>
